web/assets/img/functions/960-on.svg

<svg width="512" height="512" viewBox="0 0 512 512" fill="none" xmlns="http://www.w3.org/2000/svg">
    <path fill-rule="evenodd" clip-rule="evenodd"
          d="M453.5 73.998C447.977 73.998 443.5 78.4752 443.5 83.998V101.998L254.484 101.998V102.015C170.362 103.094 102.5 171.623 102.5 256.002C102.5 266.268 103.504 276.298 105.42 286.002H68.5V268.002C68.5 262.479 64.0228 258.002 58.5 258.002H10.5C4.97715 258.002 0.5 262.479 0.5 268.002L0.500007 428.002C0.500007 433.525 4.97716 438.002 10.5 438.002H58.5C64.0229 438.002 68.5 433.525 68.5 428.002V410.002H255.138V409.996C255.591 410 256.046 410.002 256.5 410.002C341.552 410.002 410.5 341.054 410.5 256.002C410.5 245.735 409.495 235.703 407.579 225.998L443.5 225.998V243.998C443.5 249.521 447.977 253.998 453.5 253.998H501.5C507.023 253.998 511.5 249.521 511.5 243.998V83.998C511.5 78.4752 507.023 73.998 501.5 73.998L453.5 73.998ZM402.2 205.998L443.498 205.998V121.998L332.442 121.998C364.851 140.404 389.927 170.227 402.2 205.998ZM180.551 390.002C148.145 371.595 123.071 341.772 110.799 306.002H68.5L68.5 390.002H180.551ZM463.5 93.998L491.5 93.998V233.998H463.5V93.998ZM48.5 400.002L48.5 400.01V418.002H20.5L20.5 278.002H48.5V295.997V296.002L48.5 400.002ZM256.5 122.002C182.494 122.002 122.5 181.996 122.5 256.002C122.5 330.008 182.494 390.002 256.5 390.002C330.506 390.002 390.5 330.008 390.5 256.002C390.5 181.996 330.506 122.002 256.5 122.002Z"
          fill="#282828"/>
    <path d="M296 256C296 278.091 278.091 296 256 296C233.909 296 216 278.091 216 256C216 233.909 233.909 216 256 216C278.091 216 296 233.909 296 256Z"
          fill="#12A71E"/>
</svg>

<?xml version="1.0" encoding="utf-8"?>
<!-- Generator: Adobe Illustrator 28.2.0, SVG Export Plug-In . SVG Version: 6.00 Build 0)  -->
<svg version="1.1" id="Calque_1" xmlns="http://www.w3.org/2000/svg" xmlns:xlink="http://www.w3.org/1999/xlink" x="0px" y="0px"
	 viewBox="0 0 512 512" style="enable-background:new 0 0 512 512;" xml:space="preserve">
<style type="text/css">
	.st0{fill-rule:evenodd;clip-rule:evenodd;fill:#282828;}
	.st1{fill:#33B0DF;}
</style>
<path class="st0" d="M453.5,74c-5.5,0-10,4.5-10,10v18h-189v0c-84.1,1.1-152,69.6-152,154c0,10.3,1,20.3,2.9,30H68.5v-18
	c0-5.5-4.5-10-10-10h-48c-5.5,0-10,4.5-10,10l0,160c0,5.5,4.5,10,10,10h48c5.5,0,10-4.5,10-10v-18h186.6v0c0.5,0,0.9,0,1.4,0
	c85.1,0,154-68.9,154-154c0-10.3-1-20.3-2.9-30h35.9v18c0,5.5,4.5,10,10,10h48c5.5,0,10-4.5,10-10V84c0-5.5-4.5-10-10-10H453.5z
	 M402.2,206h41.3v-84H332.4C364.9,140.4,389.9,170.2,402.2,206z M180.6,390c-32.4-18.4-57.5-48.2-69.8-84H68.5v84H180.6z M463.5,94
	h28v140h-28V94z M48.5,400L48.5,400v18h-28V278h28v18v0V400z M256.5,122c-74,0-134,60-134,134s60,134,134,134s134-60,134-134
	S330.5,122,256.5,122z"/>
<path class="st1" d="M296,256c0,22.1-17.9,40-40,40s-40-17.9-40-40s17.9-40,40-40S296,233.9,296,256z"/>
</svg>
